X:1
T:Mill of Newe
T:Mill of Newe
T:Alexander Walker
C:Alexander Walker
L:1/8
M:4/4
K:Emin
V:1 treble 
V:1
|: B>e e/e/e (ge)(fd) | (eB)(dA) AFDF | B>e e/e/e (ge)(fd) | BGAF E/E/E E :| e | BEGE BEGB | %6
 defe dDFc | BDGE egfe | dBAF E/E/E Ec | BEGE BEGB | defe dDFd | egfa gbef | dBAF E/E/E E || %13

